youtube-clone/icons/voice-search-icon.svg

<svg xmlns:xlink="http://www.w3.org/1999/xlink" xmlns="http://www.w3.org/2000/svg" height="24" viewBox="0 0 24 24" width="24" focusable="false" aria-hidden="true" style="pointer-events: none; display: inherit; width: 100%; height: 100%;"><path d="M12 3c-1.66 0-3 1.37-3 3.07v5.86c0 1.7 1.34 3.07 3 3.07s3-1.37 3-3.07V6.07C15 4.37 13.66 3 12 3zm6.5 9h-1c0 3.03-2.47 5.5-5.5 5.5S6.5 15.03 6.5 12h-1c0 3.24 2.39 5.93 5.5 6.41V21h2v-2.59c3.11-.48 5.5-3.17 5.5-6.41z" fill="#FFFFFF"></path></svg>

<svg xmlns="http://www.w3.org/2000/svg" viewBox="0 0 24 24" preserveAspectRatio="xMidYMid meet" focusable="false" class="style-scope yt-icon" style="pointer-events: none; display: block; width: 100%; height: 100%;"><g class="style-scope yt-icon"><path d="M12 3C10.34 3 9 4.37 9 6.07V11.93C9 13.63 10.34 15 12 15C13.66 15 15 13.63 15 11.93V6.07C15 4.37 13.66 3 12 3ZM18.5 12H17.5C17.5 15.03 15.03 17.5 12 17.5C8.97 17.5 6.5 15.03 6.5 12H5.5C5.5 15.24 7.89 17.93 11 18.41V21H13V18.41C16.11 17.93 18.5 15.24 18.5 12Z" class="style-scope yt-icon"></path></g></svg>
